assets/image/linkedin.svg

<svg width="42" height="42" viewBox="0 0 42 42" fill="none" xmlns="http://www.w3.org/2000/svg">
<rect x="0.5" y="-0.5" width="41.0045" height="41" transform="matrix(1 0 0 -1 -0.00222778 41)" fill="white"/>
<rect x="0.5" y="-0.5" width="41.0045" height="41" transform="matrix(1 0 0 -1 -0.00222778 41)" stroke="#18B5DC"/>
<path d="M15.4767 31H11.3301V17.647H15.4767V31ZM13.4012 15.8256C12.0753 15.8256 10.9998 14.7273 10.9998 13.4014C10.9998 12.7645 11.2528 12.1537 11.7031 11.7034C12.1535 11.253 12.7643 11 13.4012 11C14.0381 11 14.6489 11.253 15.0992 11.7034C15.5496 12.1537 15.8026 12.7645 15.8026 13.4014C15.8026 14.7273 14.7266 15.8256 13.4012 15.8256ZM30.9958 31H26.8582V24.4999C26.8582 22.9507 26.8269 20.9641 24.7023 20.9641C22.5465 20.9641 22.2161 22.6471 22.2161 24.3882V31H18.074V17.647H22.0509V19.4685H22.109C22.6625 18.4194 24.0148 17.3122 26.0323 17.3122C30.2288 17.3122 31.0002 20.0756 31.0002 23.665V31H30.9958Z" fill="#18B5DC"/>
</svg>

<svg xmlns="http://www.w3.org/2000/svg" width="42" height="42" fill="none"><path fill="#fff" d="M.498 41.5h41.005V.5H.498z"/><path stroke="#18B5DC" d="M.498 41.5h41.005V.5H.498z"/><path fill="#18B5DC" d="M15.477 31H11.33V17.647h4.147V31ZM13.4 15.826C12.075 15.826 11 14.727 11 13.4a2.401 2.401 0 1 1 4.803 0c0 1.326-1.076 2.425-2.402 2.425ZM30.996 31h-4.138v-6.5c0-1.55-.031-3.536-2.156-3.536-2.155 0-2.486 1.683-2.486 3.424V31h-4.142V17.647h3.977v1.822h.058c.553-1.05 1.906-2.157 3.923-2.157 4.197 0 4.968 2.764 4.968 6.353V31h-.004Z"/></svg>
